X:1
T:Johann Sebastian Bach
T:Johann Sebastian Bach
T: Invention No. 13 in A minor BWV 784
%%score 1 2
L:1/8
Q:1/4=90
M:4/4
K:C
V:1 treble 
V:2 bass 
V:1
"^Moderato" z/"_" E/"^=110"A/c/ B/E/[Q:1/4=100]B/d/ .c.e .^G.e | %1
 A/E/A/c/[Q:1/4=105] B/E/B/d/ .c.A z2 | %2
 z/ e/[Q:1/4=110]c/e/ A/c/E/G/ .F.A .d!tenuto!f-[Q:1/4=100] | %3
 f/d/B/d/[Q:1/4=110] G/B/D/F/ .E.G .c[Q:1/4=100]!tenuto!e- | %4
 e/c/[Q:1/4=110]A/c/ .F!tenuto!d- d/B/G/B/ .E!tenuto!c- | c/A/F/A/ .D.B c z/ E/D/ z3/2 | %6
 z/ G/c/e/ d/G/d/f/ .e.g .B.g[Q:1/4=105][Q:1/4=110] | c/G/c/e/ d/G/d/f/ .e[Q:1/4=105].c .g.e | %8
[Q:1/4=112] c'/a/e/a/[Q:1/4=115] c/e/A/c/ .d.^f.a[Q:1/4=110].c' | %9
 b/g/[Q:1/4=115]d/g/ B/d/G/B/ .c.e.g[Q:1/4=110].b | %10
 a/^f/^d/f/ B/d/^F/A/ .G!tenuto!g-"_dim." g/e/c/e/[Q:1/4=115] | %11
 .A!tenuto!^f- f/d/B/d/ .G!tenuto!e- e/c/A/c/ | %12
[Q:1/4=105] ^F/g/^f/e/ ^d/[Q:1/4=110]f/B/d/ e z3[Q:1/4=110] | %13
 z/"_" g/[Q:1/4=105]_b/g/ e/g/^c/e/[Q:1/4=115] g/e/c/e/ A/ z3/2 | %14
 z/ f/a/f/[Q:1/4=110] d/f/B/d/[Q:1/4=105] f/d/B/[Q:1/4=115]d/ G/ z3/2 | %15
 z/"_dim." e/g/e/ c/e/A/c/[Q:1/4=105] _e/c/A/c/[Q:1/4=115] ^F/ z3/2 | %16
 z/ d/f/d/ B/d/^G/B/[Q:1/4=110] d/B/G/B/[Q:1/4=105] E/ z3/2 | %17
 z/"_" E/[Q:1/4=115]A/c/ B/E/B/d/ .c.A .^G.E | A/c/e/c/ A/c/^F/A/ c/A/F/A/[Q:1/4=110] ^D/c/B/A/ | %19
 ^G/B/[Q:1/4=115]d/B/ G/B/D/F/ =G/F/D/F/ B,/F/E/D/ | %20
 C/E/A/E/ C/E/A,/C/[Q:1/4=105] _E/C/A,/C/ ^F,/C/[Q:1/4=110]B,/A,/ | %21
 .^G,.B .^G.E z/"_cresc." E/A/c/ B/E/B/d/[Q:1/4=115] | c/A/c/e/ d/B/d/f/ e/c/e/g/ f/e/d/c/ | %23
 B/c/d/e/[Q:1/4=110] f/d/^g/d/"_" b/d/c/a/[Q:1/4=115] f/d/B/d/ | %24
 ^G/B/c/A/[Q:1/4=105] E/A/B/G/ A/[Q:1/4=100]E/C/E/ !fermata!A,2 || %25
V:2
 .A,, A,2 ^G, A,/E,/A,/C/ B,/E,/B,/D/ | .C.A, .^G,.E, A,/E,/A,/C/ B,/E,/B,/D/ | %2
 .C.A,.C.A, D/A,/F,/A,/ D,/F,/A,,/C,/ | .B,,.D, .G,!tenuto!B,- B,/G,/E,/G,/ C,/E,/G,,/B,,/ | %4
 .A,,.C, D,/F,/B,,/D,/ .G,,.B,, C,/E,/A,,/C,/ | .F,,.D,, G,,/G,/F,/G,/"^" C,/G,/C/ z G,/D/F/ | %6
 .E.C .B,.G, C/G,/C/E/ D/G,/D/F/ | .E.C z2 z/ G/E/G/ C/E/G,/B,/ | %8
 .A,.C .E.G ^F/A/D/F/ A,/D/^F,/A,/ | .G,.B, .D.^F E/G/C/E/ G,/C/E,/G,/ | %10
 .^F,.A, .B,.^D z/ E/C/E/ A,/C/E/G/ | ^F/D/B,/D/ G,/B,/D/F/ E/C/A,/C/ ^F,/A,/C- | %12
 C/B,/C/A,/ .B,.B,, E,/E/B,/G,/ E,/B,,/G,,/B,,/ | .E,,.E, .G,._B, _D, z3/2 G/F/E/ | %14
 .D.D,.F,.^G, B,, z3/2 F/E/D/ | .C.C,.E,.^F, A,, z3/2 E/^D/^C/ | .B,.B,,.D,.F, ^G,, z3/2 D/C/B,/ | %17
 .C.A, .^G,.E, A,/E,/A,/C/ B,/E,/B,/D/ | C/E/A/E/ C/E/A,/C/ ^F,/A,/C/A,/ F,/A,/^D,/F,/ | %19
 .E,.^G,.B,.G, .E,.B,, .^G,,.E,, | .A,,.C,.E,.C, .A,,.C,^D,, z | %21
 z/ B,/^G,/E,/ D,/B,/G,/D,/ .C,.E, .^G,,.E, | .A,,.^F, .B,,.^G, .C,.A, .D,._B, | %23
 ._A,.=F, .D,.B,, .^G,,.A,, .D,,.E,, | .F,,.^D,, .E,,.E, !fermata!A,,4 || %25

